X: 1025
T: Who Shat in Grandpa's Hat
B: jims roots
M:C|
L:1/8
R: Reel
Q: 1/4=100
K:D
V:1 
%Q:"Fast"
%D:http://soundarchives.berea.edu/items/show/3554
fg|"D"a2a^g aba=g|f2 {g}fe fgfA-|ABde  fded|"A"cd e4ef|
"A"g2 gg gagf|efgf edcB|A2cB AGFE|"D"[D6A6]:|
|:"D"[DA]-[FA]-|[A4A4] ABAG|FE [D4A4] [FA][EA]| DEFD [E2A2]-[F2A2]-| "A"[G6A6]A2|
"A"+slide+[e4e4] efed|cB A4cB|ABcB AGFE|"D"[D6A6]:|
% abcbook-tune_id 6298c2977749a7adb8878073


% abcbook-boost 0
% abcbook-tablature 
% abcbook-transpose 
% abcbook-lastupdated 1654178456912
% abcbook-soundfonts 
% abcbook-repeats 1


